X:250
T: Xinxie shizi
N: C1744
O: China,Liaoning Chifeng
S: III, 238]
R: Xiaodiao, Xieshizi diao]
M: 2/4
L: 1/16
K: Bb
c3cc2c2 | f2d2c4 | f2d2f4 | b4b2g2 |
c2c2c4 | f2d2c4 | f2d2f4 | b4b2g2 |
d2g2f4 | d2f2d2c2 | f2g2d2c2 | b6g2 |
c2d2f4
d2g2f4 | f2f2g2d2 | c4c4 |
f4g4 | d3cb2d2 | c8 |
f2d2f4 | d3cb2b2 | b2g2c4 | b2g2f4 | a3ga2g2 | f8 |
f6d2 | c2b2c4 |
f6d2 | c2b2c4 |
g3bg2b2
c3bc2b2
g3bg2b2
c3bc2b2
g3bg2b2
c3bc2b2
a2g2a2g2 | f4z4 |
g3bg2b2 | c4z4 |
f2d2f4 | a3gf2g2 | c4a2g2 | f2d2b2g2 | f8- | f8

@@@ Tune index: 6805
